svg/FoundationIcons/fi-social-hacker-news.svg

<svg xmlns="http://www.w3.org/2000/svg" viewBox="0 0 100 100" enable-background="new 0 0 100 100"><path fill="#231f20" d="m79 14h-58c-3.866 0-7 3.134-7 7v58c0 3.866 3.134 7 7 7h58c3.866 0 7-3.134 7-7v-58c0-3.866-3.134-7-7-7m-25.866 38.654v17.18h-5.267v-17.12l-12.747-23.22h5.925l5.685 11.132c1.556 3.051 2.752 5.505 4.01 8.318h.12c1.137-2.634 2.514-5.268 4.07-8.318l5.805-11.132h5.924l-13.525 23.16"/></svg>

<?xml version="1.0" encoding="utf-8"?>
<!-- Generator: Adobe Illustrator 17.0.0, SVG Export Plug-In . SVG Version: 6.00 Build 0)  -->
<!DOCTYPE svg PUBLIC "-//W3C//DTD SVG 1.1//EN" "http://www.w3.org/Graphics/SVG/1.1/DTD/svg11.dtd">
<svg version="1.1" id="Layer_1" xmlns="http://www.w3.org/2000/svg" xmlns:xlink="http://www.w3.org/1999/xlink" x="0px" y="0px"
	 width="100px" height="100px" viewBox="0 0 100 100" enable-background="new 0 0 100 100" xml:space="preserve">
<g>
	<path fill="#231F20" d="M79,14H21c-3.866,0-7,3.134-7,7v58c0,3.866,3.134,7,7,7h58c3.866,0,7-3.134,7-7V21
		C86,17.134,82.866,14,79,14z M53.134,52.654V69.83h-5.267V52.714L35.12,29.494h5.925l5.685,11.132
		c1.556,3.051,2.752,5.505,4.01,8.318h0.12c1.137-2.634,2.514-5.268,4.07-8.318l5.805-11.132h5.924L53.134,52.654z"/>
</g>
</svg>
